src/images/webpack.svg

<svg width="120" height="120" viewBox="0 0 120 120" fill="none" xmlns="http://www.w3.org/2000/svg">
<path d="M101.829 86.8021L61.6847 109.513V91.8284L86.6979 78.0652L101.829 86.8021ZM104.579 84.3152V36.8284L89.8952 45.3152V75.8415L104.579 84.3152ZM18.0137 86.8021L58.1584 109.513V91.8284L33.1321 78.0652L18.0137 86.8021ZM15.2637 84.3152V36.8284L29.9479 45.3152V75.8415L15.2637 84.3152ZM16.9874 33.7494L58.1584 10.46V27.5521L31.7768 42.0652L31.5663 42.1836L16.9874 33.7494ZM102.856 33.7494L61.6847 10.46V27.5521L88.0663 42.0521L88.2768 42.1705L102.856 33.7494Z" fill="#D1D2D6"/>
<path d="M58.1574 87.8019L33.4731 74.2229V47.3414L58.1574 61.5914V87.8019ZM61.6837 87.8019L86.3679 74.2361V47.3414L61.6837 61.5914V87.8019ZM35.1442 44.2361L59.9205 30.6177L84.6968 44.2361L59.9205 58.5387L35.1442 44.2361Z" fill="#D1D2D6"/>
</svg>

<svg xmlns="http://www.w3.org/2000/svg" width="120" height="120" fill="#d1d2d6"><path d="M101.83 86.802l-40.144 22.7V91.828L86.7 78.065l15.13 8.737zm2.75-2.487V36.828l-14.684 8.487V75.84l14.684 8.474zm-86.565 2.487l40.145 22.7V91.828L33.132 78.065l-15.118 8.737zm-2.75-2.487V36.828l14.684 8.487V75.84l-14.684 8.474zM16.99 33.75l41.17-23.3V27.55L31.567 42.18l-14.58-8.434zm85.87 0l-41.17-23.3V27.55l26.588 14.62 14.58-8.42zM58.157 87.802l-24.684-13.58V47.34L58.157 61.6v26.2zm3.526 0l24.684-13.566V47.34L61.684 61.6v26.2zm-26.54-43.566L59.92 30.618l24.776 13.618L59.92 58.54 35.144 44.236z"/></svg>
